X:325
T: HAR CHUELI HO LOBE
N: E1474
O: Europa, Mitteleuropa, Schweiz, Oberhasel
R: Staende -, Hirten -, Alpen - Lied, Kuhreihen
M: 3/8
L: 1/8
K: F
c | cAB | BGc | cAc | BG
F | FGF | FGF | FGF | FG
F | A2A | =B2B | c2
c | cAc | BGc | cAc | BG
F | FGF | FGF | FGF | FG
F | A2A | =B2B | c2
c | AAB | G2G | AAB | GG
c | A2F | F2
c2 | B2AA | G2F2 | E2D2 | C2
c2 | A2F2 | E2G2 | F4 | F2
F2 | E2G2 | G2E2 | F2A2 | A2
F2 | E2G2 | G2E2 | F2A2 | A2
c2 | =B2c2 | A2G2 | F4 | F4

@@@ Tune index: 5009
